X: 2068
T: Asturian Air
R: hornpipe
M: 4/4
K: Aminor
E2|A2AB BcBG|E3G F2ED|E2 E4EE|
A3 B dcBG|E2 EG F2 ED|E6 (3Bcd|
e5 z dc|B3 A A4|(3Bcd dc dcBA|^GABc B2 AE|
(3Bcd dc dcBA|^GABc B2 AE|(3Bcd dc dcBA|^G6 e2|

